Obsidian/actions/16s/edit-undo-symbolic.svg

<svg height="16" width="16" xmlns="http://www.w3.org/2000/svg"><path d="m8.65625 5c-.2406582-.003993-.4778998.008932-.71875.03125-1.4986234.1388678-2.9934844.7900635-4.15625 1.9375l-1.625-1.6875-1.1875 6.75.1875-.03125 1-5.71875 1.625 1.6875c2.65775-2.622712 6.897123-2.6324118 9.5.0625.574317.5946239 1.019668 1.2778882 1.34375 2l.34375-.09375c-.312676-1.0625531-.8767-2.066781-1.6875-2.90625-1.281103-1.3264016-2.940392-2.0032991-4.625-2.03125zm-2.90625 4v.96875l.90625.96875.8125-.15625-1.15625-1.21875-.03125-.03125zm-3.5880057-3.7141817-1.18269944 6.7299527 6.50011344-1.224518-1.734627-1.7959613c1.585932-1.542364 4.07934-1.510427 5.6264927.091431.448732.464601.771898 1.0109973.965083 1.5935073l2.642938-.7314453c-.312676-1.062553-.873363-2.066723-1.684163-2.906192-2.602877-2.6949114-6.8416867-2.6880184-9.4994367-.0653064z" fill="#bebebe"/></svg>

<?xml version="1.0" encoding="UTF-8" standalone="no"?>
<!-- Created with Inkscape (http://www.inkscape.org/) -->

<svg
   xmlns:dc="http://purl.org/dc/elements/1.1/"
   xmlns:cc="http://creativecommons.org/ns#"
   xmlns:rdf="http://www.w3.org/1999/02/22-rdf-syntax-ns#"
   xmlns:svg="http://www.w3.org/2000/svg"
   xmlns="http://www.w3.org/2000/svg"
   xmlns:xlink="http://www.w3.org/1999/xlink"
   xmlns:sodipodi="http://sodipodi.sourceforge.net/DTD/sodipodi-0.dtd"
   xmlns:inkscape="http://www.inkscape.org/namespaces/inkscape"
   width="16"
   height="16"
   id="svg2"
   sodipodi:version="0.32"
   inkscape:version="0.91 r13725"
   version="1.0"
   sodipodi:docname="edit-undo-symbolic.svg"
   inkscape:output_extension="org.inkscape.output.svg.inkscape">
  <defs
     id="defs4">
    <inkscape:perspective
       sodipodi:type="inkscape:persp3d"
       inkscape:vp_x="0 : 8 : 1"
       inkscape:vp_y="0 : 1000 : 0"
       inkscape:vp_z="16 : 8 : 1"
       inkscape:persp3d-origin="8 : 5.3333333 : 1"
       id="perspective14" />
    <linearGradient
       id="StandardGradient"
       gradientTransform="scale(1.4142135,0.7071068)"
       x1="5.6422138"
       y1="7.0933704"
       x2="5.6422138"
       y2="16.99752"
       gradientUnits="userSpaceOnUse">
      <stop
         style="stop-color:#000000;stop-opacity:0.86274511;"
         offset="0"
         id="stop3308" />
      <stop
         style="stop-color:#000000;stop-opacity:0.47058824;"
         offset="1"
         id="stop3310" />
    </linearGradient>
    <inkscape:perspective
       id="perspective3648"
       inkscape:persp3d-origin="0.5 : 0.33333333 : 1"
       inkscape:vp_z="1 : 0.5 : 1"
       inkscape:vp_y="0 : 1000 : 0"
       inkscape:vp_x="0 : 0.5 : 1"
       sodipodi:type="inkscape:persp3d" />
    <linearGradient
       inkscape:collect="always"
       xlink:href="#StandardGradient"
       id="linearGradient3623"
       gradientUnits="userSpaceOnUse"
       gradientTransform="matrix(1.4142135,0,0,0.7071068,-20,0)"
       x1="5.6422138"
       y1="7.0933704"
       x2="5.6422138"
       y2="16.99752" />
    <clipPath
       clipPathUnits="userSpaceOnUse"
       id="clipPath3630">
      <path
         style="fill:#ff00ff;fill-opacity:1;stroke:none;display:inline"
         d="m -20,0 0,16 16,0 0,-16 -16,0 z m 7.9375,5.03125 c 1.926802,-0.1785445 3.8796317,0.4841123 5.34375,2 0.8108,0.839469 1.374824,1.843697 1.6875,2.90625 l -2.625,0.75 C -7.849435,10.10499 -8.176268,9.558351 -8.625,9.09375 -10.172153,7.491892 -12.664068,7.457636 -14.25,9 l 1.71875,1.78125 -6.5,1.25 1.1875,-6.75 1.625,1.6875 c 1.162766,-1.1474367 2.657627,-1.7986321 4.15625,-1.9375 z"
         id="path3632" />
    </clipPath>
    <linearGradient
       inkscape:collect="always"
       xlink:href="#StandardGradient"
       id="linearGradient4502"
       gradientUnits="userSpaceOnUse"
       gradientTransform="scale(1.4142135,0.7071068)"
       x1="5.6422138"
       y1="7.0933704"
       x2="5.6422138"
       y2="16.99752" />
    <linearGradient
       inkscape:collect="always"
       xlink:href="#StandardGradient"
       id="linearGradient4506"
       gradientUnits="userSpaceOnUse"
       gradientTransform="scale(1.4142135,0.7071068)"
       x1="5.6422138"
       y1="7.0933704"
       x2="5.6422138"
       y2="16.99752" />
  </defs>
  <sodipodi:namedview
     id="base"
     pagecolor="#ffffff"
     bordercolor="#9a9a9a"
     borderopacity="1"
     inkscape:pageopacity="0.0"
     inkscape:pageshadow="2"
     inkscape:zoom="17.578558"
     inkscape:cx="-13.456329"
     inkscape:cy="0.51539022"
     inkscape:document-units="px"
     inkscape:current-layer="layer3"
     showgrid="true"
     inkscape:showpageshadow="false"
     showguides="true"
     inkscape:guide-bbox="true"
     inkscape:window-width="1920"
     inkscape:window-height="1004"
     inkscape:window-x="0"
     inkscape:window-y="25"
     inkscape:window-maximized="1">
    <inkscape:grid
       type="xygrid"
       id="grid3672"
       visible="true"
       enabled="true" />
  </sodipodi:namedview>
  <metadata
     id="metadata7">
    <rdf:RDF>
      <cc:Work
         rdf:about="">
        <dc:format>image/svg+xml</dc:format>
        <dc:type
           rdf:resource="http://purl.org/dc/dcmitype/StillImage" />
      </cc:Work>
    </rdf:RDF>
  </metadata>
  <g
     inkscape:groupmode="layer"
     id="layer3"
     inkscape:label="Arrow"
     style="display:inline">
    <path
       id="BevelShadow"
       style="opacity:1;fill:#bebebe;fill-opacity:1;stroke:none;stroke-width:1.00000024;stroke-linecap:round;stroke-linejoin:miter;stroke-miterlimit:4;stroke-dasharray:none;stroke-opacity:1;display:inline"
       d="M 8.65625,5 C 8.4155918,4.996007 8.1783502,5.008932 7.9375,5.03125 6.4388766,5.1701178 4.9440156,5.8213135 3.78125,6.96875 l -1.625,-1.6875 -1.1875,6.75 L 1.15625,12 l 1,-5.71875 1.625,1.6875 c 2.65775,-2.622712 6.897123,-2.6324118 9.5,0.0625 0.574317,0.5946239 1.019668,1.2778882 1.34375,2 L 14.96875,9.9375 C 14.656074,8.8749469 14.09205,7.870719 13.28125,7.03125 12.000147,5.7048484 10.340858,5.0279509 8.65625,5 Z M 5.75,9 5.75,9.96875 6.65625,10.9375 7.46875,10.78125 6.3125,9.5625 6.28125,9.53125 5.75,9 Z M 2.1619943,5.2858183 0.97929486,12.015771 7.4794083,10.791253 5.7447813,8.9952917 c 1.585932,-1.542364 4.07934,-1.510427 5.6264927,0.091431 0.448732,0.464601 0.771898,1.0109973 0.965083,1.5935073 L 14.979295,9.9487847 C 14.666619,8.8862317 14.105932,7.8820617 13.295132,7.0425927 10.692255,4.3476813 6.4534453,4.3545743 3.7956953,6.9772863 l -1.633701,-1.691468 z" />
  </g>
</svg>
